!!!COM: Haydn, Franz Joseph
!!!OTL: String Quartet in D Major
!!!OPS: Opus 20
!!!ONM: No. 4
!!!OMD: Presto e scherzando
!!!OMV: 4
!!!SCT: H III:34
!!!SCA: Thematisch-bibliographisches Werkevererzeichnis (A. van Hoboken)
!!!YOR: Trautwein Edition
!!!ENC: Frances Bennion
!!!ENC: Harmonic analysis by Nestor Napoles
!!!CDT: 1732/3/31/-1809/5/31/
!!!CNT: Oesterreich
!!!YEC: Copyright (c) 1994, 2000 Center for Computer Assisted Research in the Humanities
!!!YEM: Rights to all derivative editions reserved.
!!!YEM: Refer to licensing agreement for further details.
!!!YEN: United States of America
**harm	**commentary	**kern	**kern	**kern	**kern
*k[f#]	*k[f#]	*k[f#]	*k[f#]	*k[f#]	*k[f#]
*G:	*G:	*G:	*G:	*G:	*G:
*	*	*clefF4	*clefC3	*clefG2	*clefG2
*M4/4	*M4/4	*M4/4	*M4/4	*M4/4	*M4/4
*staff1/2/3/4	*	*staff1	*staff2	*staff3	*staff4
.	.	2..r	2..r	2..r	2..r
.	Sonata form	8r	8r	8r	8ddd
=1	=1	=1	=1	=1	=1
I	Theme A	1r	1r	1r	16bb
.	.	.	.	.	16ccc
.	.	.	.	.	16ddd
.	.	.	.	.	16bb
.	.	.	.	.	8ccc
.	.	.	.	.	8aa
viio	.	.	.	.	8ff#
.	.	.	.	.	16ee
.	.	.	.	.	16dd
.	.	.	.	.	8ee
.	.	.	.	.	8ff#
=2	=2	=2	=2	=2	=2
Ib	.	2b	2dd	4gg	4gg
viioD7/ii	.	.	.	4ff	4gg#
ii	.	4cc	4cc	4ee	4aa
.	.	4r	4r	4r	8r
.	.	.	.	.	8bb
=3	=3	=3	=3	=3	=3
ii	.	1r	1r	1r	16ccc
.	.	.	.	.	16ddd
.	.	.	.	.	16eee
.	.	.	.	.	16ccc
.	.	.	.	.	8aa
.	.	.	.	.	8ccc
ib[III]	These patterns are very ambiguous, and they could be interpreted in different ways	.	.	.	8bb
.	.	.	.	.	16aa
.	.	.	.	.	16gg
.	.	.	.	.	8ff#
.	.	.	.	.	8gg
=4	=4	=4	=4	=4	=4
V	.	4d	4a	4f#	4aa
viiob/V	.	4e	4g	4g	4cc#
Vb	.	4f#	4f#	4a	4dd
.	.	4r	4r	4r	8r
.	.	.	.	.	8gg
=5	=5	=5	=5	=5	=5
ii	.	2r	2r	2r	16aa
.	.	.	.	.	16bb
.	.	.	.	.	16ccc
.	.	.	.	.	16aa
.	.	.	.	.	8bb
.	.	.	.	.	8ggg
Ib	.	8B	8dd	8gg	24ggg
.	.	.	.	.	24fff#
.	.	.	.	.	24eee
.	.	8r	8r	8r	8ddd
Ib	.	8B	8dd	8gg	24ggg
.	.	.	.	.	24fff#
.	.	.	.	.	24eee
.	.	8r	8r	8r	8ddd
=6	=6	=6	=6	=6	=6
IV	.	8c	8g	8ee	24eee
.	.	.	.	.	24ddd
.	.	.	.	.	24ccc
.	.	8r	8r	8r	8bb
V7	.	8d	8f#	8cc	24ddd
.	.	.	.	.	24ccc
.	.	.	.	.	24bb
.	.	8r	8r	8r	8aa
I	.	4G	4g	4b	4gg
.	.	4r	4r	4r	8r
.	.	.	.	.	8dd
=7	=7	=7	=7	=7	=7
V	Moving shortly to the parallel minor	4d	4dd	4dd	4ddd
.	.	8.d	8.dd	8.dd	8.ddd
viio/V	.	16c#	16cc#	16cc#	16ccc#
V	.	4d	4dd	4dd	4ddd
.	.	4A	4a	4a	4aa
=8	=8	=8	=8	=8	=8
III+c/i[V+b]	Very strange dominant effect, re-spelling an augmented dominant to an augmented third degree in the minor mode	2B-	2b-	2b-	2bb-
.	.	8F#	8f#	8f#	8ff#
.	.	4.r	4.r	4.r	8r
.	.	.	.	.	16bb- 16ff#
.	.	.	.	.	16bb- 16ff#
.	.	.	.	.	16bb- 16ff#
.	.	.	.	.	16bb- 16ff#
=9	=9	=9	=9	=9	=9
.	.	2..r	2..r	2..r	8ff# 8bb-
.	.	.	.	.	8r
.	.	.	.	.	16bb- 16ff#
.	.	.	.	.	16bb- 16ff#
.	.	.	.	.	16bb- 16ff#
.	.	.	.	.	16bb- 16ff#
.	.	.	.	.	8ff# 8bb-
.	.	.	.	.	8r
.	.	.	.	.	16bb-
.	.	.	.	.	16ff#
.	.	8f#	8ff#	8ff#	16bb-
.	.	.	.	.	16ff#
=10	=10	=10	=10	=10	=10
i	Finally resolving to d minor, and back to major afterwards	4g	4gg	4gg	4gg
.	.	4d	4dd	4dd	4dd
.	.	4.B-	4.b-	4.b-	4.b-
V7/v	.	16A	16a	16a	16a
.	.	16G	16g	16g	16g
=11	=11	=11	=11	=11	=11
Vb	.	4F#	4f#	4f#	4f#
.	.	4d	4dd	4dd	4dd
V	.	4D	4d	4d	4d
.	.	4r	4r	4r	8r
.	.	.	.	.	8ddd
=12	=12	=12	=12	=12	=12
I	.	1r	1r	1r	16bb
.	.	.	.	.	16ccc
.	.	.	.	.	16ddd
.	.	.	.	.	16bb
.	.	.	.	.	8ccc
.	.	.	.	.	8aa
viio	.	.	.	.	8ff#
.	.	.	.	.	16ee
.	.	.	.	.	16dd
.	.	.	.	.	8ee
.	.	.	.	.	8ff#
=13	=13	=13	=13	=13	=13
Ib	.	2b	2dd	4gg	4gg
viioD7/ii	.	.	.	4ff	4gg#
ii	.	4cc	4cc	4ee	4aa
.	.	4r	4r	4r	4r
=14	=14	=14	=14	=14	=14
iib	.	2cc	2cc	2.ee	4aa
.	Passing tone	.	.	.	4aa#
V7b/ii	.	4g#	4dd	.	4bb
.	.	8r	8r	8r	8r
.	.	8g#	[8ee	8dd	8bb
=15	=15	=15	=15	=15	=15
ii	.	4a	4ee]	4cc	4ccc
.	.	8r	8r	8r	8r
.	.	8a	8aa	8ee	8ccc
V7d/V	.	4g	4ee	4aa	4ccc#
.	.	8r	8r	8r	8r
.	.	8g	8a	8ee	8ccc#
=16	=16	=16	=16	=16	=16
Vb	.	4f#	4d	4ff#	4ddd
.	.	8r	8r	8r	8r
V7b	.	8f#	4.d	8aa	8ccc
i	.	8g	.	4gg	8bb
.	Passing tone in the first violin	8B	.	.	8ddd#
iib	.	8c	8r	8r	8eee
viio/ii	.	8r	8g#	8bb	8ddd
=17	=17	=17	=17	=17	=17
ii	.	8r	4a	4aa	8ccc
.	Pasing tone in the first violin and appoggiatura in the bass	8B	.	.	8ddd#
iib	.	8c	8r	8r	8eee
viio/ii	.	4r	8g#	8bb	8ddd
ii	.	.	4a	4aa	8ccc
.	.	8B	.	.	8ddd#
iib	.	8c	8r	8r	8eee
ii	.	8A	8ee	8aa	8ccc
=18	=18	=18	=18	=18	=18
Ic	.	2d	2dd	2gg	2bb
V	.	4D	4d	4ff#	4aa
.	.	4r	4r	8r	8r
.	.	.	.	8ff#	8aa
=19	=19	=19	=19	=19	=19
*D:	*D:	*D:	*D:	*D:	*D:
I[V]	Theme B	2..r	4.r	16dd	16ff#
.	.	.	.	16ee	16gg
.	.	.	.	16ff#	16aa
.	.	.	.	16dd	16ff#
V7	.	.	.	8ee	8gg
.	.	.	8a	8cc#	8ee
Ib	.	.	16f#	[2a	16dd
.	.	.	16g	.	16ee
.	.	.	16a	.	16ff#
.	.	.	16f#	.	16dd
V7	.	.	8g	.	8ee
.	.	8A	8e	.	8cc#
=20	=20	=20	=20	=20	=20
Ib	.	16F#	16d	8a]	8dd
.	.	16G	16e	.	.
.	.	16A	16f#	8d	4aa
.	.	16F#	16d	.	.
V7c[V7d]	.	8G	8e	8c#	.
.	.	8E	8c#	8g	4aa
I	.	16D	8d	16f#	.
.	.	16E	.	16g	.
.	.	16F#	8dd	16a	4aa
.	.	16D	.	16f#	.
V7b[V7c]	.	8E	8cc#	8g	.
.	.	8C#	8ee	8e	8aa
=21	=21	=21	=21	=21	=21
I	.	8D	8a	8f#	16ff#
.	.	.	.	.	16gg
.	.	8D	8ff#	8aa	16aa
.	.	.	.	.	16ff#
.	.	8D	8ff#	8aa	16dd
.	.	.	.	.	16ee
.	.	8D	8ff#	8aa	16ff#
.	.	.	.	.	16dd
.	.	8D	8f#	8a	4a
.	.	8D	8ff#	8aa	.
.	.	8D	8ff#	8aa	4r
.	.	8D	8ff#	8aa	.
=22	=22	=22	=22	=22	=22
*d:	*d:	*d:	*d:	*d:	*d:
i	Moving to the parallel minor	8D	8f	8a	16ff
.	.	.	.	.	16gg
.	.	8D	8ff	8aa	16aa
.	.	.	.	.	16ff
.	.	8D	8ff	8aa	16dd
.	.	.	.	.	16ee
.	.	8D	8ff	8aa	16ff
.	.	.	.	.	16dd
.	.	8D	8f	8a	4a
.	.	8D	8ff	8aa	.
.	.	8D	8ff	8aa	4r
.	.	8D	8ff	8aa	.
=23	=23	=23	=23	=23	=23
VI	.	8BB-	8ff	8dd 8bb-	16ddd
.	.	.	.	.	16ccc#
.	.	8BB-	8ff	8bb- 8dd	16ddd
.	.	.	.	.	16ccc#
.	.	8BB-	8ff	8bb- 8dd	16ddd
.	.	.	.	.	16ccc#
.	.	8BB-	8ff	8bb- 8dd	16ddd
.	.	.	.	.	16ccc#
.	.	4BB-	4ff	4bb- 4dd	4ddd
.	.	8.B-	8.f	8.dd 8.b-	8.dd 8.b-
.	.	16B-	16f	16b- 16dd	16b- 16dd
=24	=24	=24	=24	=24	=24
.	.	4B-	4f	4dd 4b-	4dd 4b-
V7b/VI	.	8.A	8.f	8.cc	8.eee- 8.ff
.	.	16A	16f	16cc	16eee- 16ff
.	.	4A	4f	4cc	4eee- 4ff
.	.	8.A	8.f	8.cc	8.ee-
.	.	16A	16f	16cc	16ee-
=25	=25	=25	=25	=25	=25
.	.	4A	4f	4cc	4ee-
.	.	2r	2r	2r	2r
VI	.	8.B-	8.f	8.b-	8.dd
.	.	16B-	16f	16b-	16dd
=26	=26	=26	=26	=26	=26
.	.	4B-	4f	4b-	4dd
.	.	2r	2r	2r	2r
Gn	.	8.B-	8.f	8.g#	8.dd
.	.	16B-	16f	16g#	16dd
=27	=27	=27	=27	=27	=27
.	.	4B-	4f	4g#	[6..dd
.	.	2r	2r	2r	.
.	.	.	.	.	48dd]
.	.	.	.	.	16cc#
.	.	.	.	.	16dd
.	.	.	.	.	16ee
.	.	.	.	.	8ff
.	.	.	.	.	8ff
.	.	4BB-	4d	4g#	8ee
.	.	.	.	.	8dd
=28	=28	=28	=28	=28	=28
V	.	4AA	4e	4a	8cc#
.	.	.	.	.	8dd
.	.	2r	2r	2r	8ee
.	.	.	.	.	8ff
.	.	.	.	.	4.ee
Gn	.	4BB-	4d	4g#	.
.	.	.	.	.	8dd
=29	=29	=29	=29	=29	=29
V	.	4AA	4e	4a	8cc#
.	.	.	.	.	8dd
.	.	2r	2r	2r	8ee
.	.	.	.	.	8ff
.	.	.	.	.	4.ee
Gn	.	4BB-	4d	4g#	.
.	.	.	.	.	8dd
=30	=30	=30	=30	=30	=30
V	.	4AA	4e	4a	8cc#
.	.	.	.	.	8dd
.	.	2r	2r	2r	8ee
.	.	.	.	.	8ff
.	.	.	.	.	4.ee
.	.	8r	8r	8r	.
.	.	8A	8a	8a	8a
=31	=31	=31	=31	=31	=31
IV	.	16G	16g	16g	16g
.	.	16F#	16f#	16f#	16f#
.	.	16G	16g	16g	16g
.	.	16F#	16f#	16f#	16f#
.	.	16G	16g	16g	16g
.	.	16F#	16f#	16f#	16f#
.	.	16G	16g	16g	16g
.	.	16F#	16f#	16f#	16f#
.	.	16G	16g	16g	16g
.	.	16F#	16f#	16f#	16f#
.	.	16G	16g	16g	16g
.	.	16F#	16f#	16f#	16f#
.	.	16G	16g	16g	16g
.	.	16F#	16f#	16f#	16f#
.	.	16G	16g	16g	16g
.	.	16F#	16f#	16f#	16f#
=32	=32	=32	=32	=32	=32
.	.	4G	4g	4g	4g
viio	.	8.C#	8.c#	8.c#	8.c#
.	.	16C#	16c#	16c#	16c#
V7b	.	2C#	4.c#	4.c#	4.c#
.	.	.	8a	8ee	8gg
=33	=33	=33	=33	=33	=33
*D:	*D:	*D:	*D:	*D:	*D:
I	Back to major mode	4D	2a	4dd	16ff#
.	.	.	.	.	16gg
.	.	.	.	.	16aa
.	.	.	.	.	16ff#
.	.	4F#	.	4r	16dd
.	.	.	.	.	16ee
.	.	.	.	.	16ff#
.	.	.	.	.	16dd
IV	Starting a sequential progression	[2G	4d	16b	4b
.	.	.	.	16cc#	.
.	.	.	.	16dd	.
.	.	.	.	16b	.
(IV+)	.	.	4d#	16g	4r
.	.	.	.	16a	.
.	.	.	.	16b	.
.	.	.	.	16g	.
=34	=34	=34	=34	=34	=34
iib	.	4G]	2.e	4e	16gg
.	.	.	.	.	16aa
.	.	.	.	.	16bb
.	.	.	.	.	16gg
(Vb/V)	.	4G#	.	4r	16ee
.	.	.	.	.	16ff#
.	.	.	.	.	16gg
.	.	.	.	.	16ee
V	.	[2A	.	16cc#	4cc#
.	.	.	.	16dd	.
.	.	.	.	16ee	.
.	.	.	.	16cc#	.
(V+)	.	.	4e#	16a	4r
.	.	.	.	16b	.
.	.	.	.	16cc#	.
.	.	.	.	16a	.
=35	=35	=35	=35	=35	=35
iiib	.	4A]	2.f#	4f#	16aa
.	.	.	.	.	16bb
.	.	.	.	.	16ccc#
.	.	.	.	.	16aa
(Vb/vi)	.	4A#	.	4r	16ff#
.	.	.	.	.	16gg
.	.	.	.	.	16aa
.	.	.	.	.	16ff#
vi	.	[2B	.	16dd	4dd
.	.	.	.	16ee	.
.	.	.	.	16ff#	.
.	.	.	.	16dd	.
(iic)	Haydn decided to change the melodic pattern here	.	8f#	16b	4r
.	.	.	.	16cc#	.
.	.	.	16e	16dd	.
.	.	.	16f#	16b	.
=36	=36	=36	=36	=36	=36
IVb	.	4B]	2.g	4g	16bb
.	.	.	.	.	16ccc#
.	.	.	.	.	16ddd
.	.	.	.	.	16bb
.	.	4B	.	4r	16gg
.	.	.	.	.	16aa
.	.	.	.	.	16bb
.	.	.	.	.	16gg
viio	.	[2c#	.	16ee	4ee
.	.	.	.	16ff#	.
.	.	.	.	16gg	.
.	.	.	.	16ee	.
(vii)	Making it a minor triad with the chromatism	.	4g#	16cc#	4r
.	.	.	.	16dd	.
.	.	.	.	16ee	.
.	.	.	.	16cc#	.
=37	=37	=37	=37	=37	=37
Vb	.	4c#]	2a	4a	16ccc#
.	.	.	.	.	16ddd
.	.	.	.	.	16eee
.	.	.	.	.	16ccc#
.	.	4c#	.	2r	16aa
.	.	.	.	.	16bb
.	.	.	.	.	16ccc#
.	.	.	.	.	16aa
I	.	16d	16ff#	.	4ff#
.	.	16e	16gg	.	.
.	.	16f#	16aa	.	.
.	.	16d	16ff#	.	.
.	.	16B	16dd	4ff#	4ddd
.	.	16c#	16ee	.	.
.	.	16d	16ff#	.	.
.	.	16B	16dd	.	.
=38	=38	=38	=38	=38	=38
iib	.	16G	16b	2bb	2.ggg
.	.	16A	16cc#	.	.
.	.	16B	16dd	.	.
.	.	16G	16b	.	.
.	.	16E	16g	.	.
.	.	16F#	16a	.	.
.	.	16G	16b	.	.
.	.	16E	16g	.	.
V7b	.	16C#	16e	[2aa	.
.	.	16D	16f#	.	.
.	.	16E	16g	.	.
.	.	16C#	16e	.	.
I	.	16D	16f#	.	4fff#
.	.	16E	16g	.	.
.	.	16F#	16a	.	.
.	.	16D	16f#	.	.
=39	=39	=39	=39	=39	=39
V7b	.	8C#	8e	2aa]	4ggg
.	.	8c#	8ee	.	.
I	.	8d	8ff#	.	4fff#
.	.	8D	8a	.	.
iib	.	4G	4b	4gg	16eee
.	.	.	.	.	16fff#
.	.	.	.	.	16ggg
.	.	.	.	.	16eee
V	.	8r	8r	4r	8aa
.	.	8A	8e	.	8ccc#
=40	=40	=40	=40	=40	=40
I	.	8D	4f#	8ddd	4dd
.	.	8d	.	8dd	.
.	.	8F#	4F#	2.r	8dd
.	.	8d	.	.	8dd
iib	.	8G	4G	.	8ee
.	.	8d	.	.	8ee
Ic	.	8A	4A	.	8ff#
.	.	8d	.	.	8ff#
=41	=41	=41	=41	=41	=41
IVb	.	8B	4B	8ddd	8gg
.	.	8d	.	8dd	8gg
Ic	.	8A	4A	2.r	8ff#
.	.	8d	.	.	8ff#
IVb	.	8B	4B	.	8gg
.	.	8d	.	.	8gg
Ic	.	8A	4A	.	8ff#
.	.	8d	.	.	8ff#
=42	=42	=42	=42	=42	=42
iim7b	.	8G	4G	8ddd	8ee
.	.	8d	.	8dd	8ee
Ib	.	8F#	4F#	2.r	8dd
.	.	8d	.	.	8dd
iim7b	.	8G	4G	.	8ee
.	.	8d	.	.	8ee
V	.	8A	4A	.	8a
.	.	8c#	.	.	8a
=43	=43	=43	=43	=43	=43
I	.	8D	4d	8ddd	8dd
.	.	8d	.	8dd	8r
.	.	8F#	8r	8r	16dd
.	.	.	.	.	16ee
.	.	8d	8f#	8ddd	16ff#
.	.	.	.	.	16dd
iim7b	.	8G	8r	8r	16ee
.	.	.	.	.	16ff#
.	.	8d	8g	8ddd	16gg
.	.	.	.	.	16ee
Ic	.	8A	8r	8r	16ff#
.	.	.	.	.	16gg
.	.	8d	8a	8ddd	16aa
.	.	.	.	.	16ff#
=44	=44	=44	=44	=44	=44
IVb	.	8B	8r	8r	16gg
.	.	.	.	.	16aa
.	.	8d	8b	8ddd	16bb
.	.	.	.	.	16gg
Ic	.	8A	8r	8r	16ff#
.	.	.	.	.	16gg
.	.	8d	8a	8ddd	16aa
.	.	.	.	.	16ff#
IVb	.	8B	8r	8r	16gg
.	.	.	.	.	16aa
.	.	8d	8b	8ddd	16bb
.	.	.	.	.	16gg
Ic	.	8A	8r	8r	16ff#
.	.	.	.	.	16gg
.	.	8d	8a	8ddd	16aa
.	.	.	.	.	16ff#
=45	=45	=45	=45	=45	=45
iim7b	.	8G	8r	8r	16ee
.	.	.	.	.	16ff#
.	.	8d	8g	8ddd	16gg
.	.	.	.	.	16ee
Ib	.	8F#	8r	8r	16dd
.	.	.	.	.	16ee
.	.	8d	8f#	8ddd	16ff#
.	.	.	.	.	16dd
iim7b	.	8G	8r	8r	16ee
.	.	.	.	.	16ff#
.	.	8d	8g	8ddd	16gg
.	.	.	.	.	16ee
V	.	8A	8r	8r	16cc#
.	.	.	.	.	16dd
.	.	8AA	8a	8ddd	16ee
.	.	.	.	.	16cc#
=46	=46	=46	=46	=46	=46
I	There are chromatic neighbouring tones, but the harmony remains the same	4D	4d	8r	8dd
.	.	.	.	8ddd	8r
.	.	2.r	2.r	8ff#	8aa
.	.	.	.	8ee#	8gg#
.	.	.	.	8ff#	8aa
.	.	.	.	8ee#	8gg#
.	.	.	.	8ff#	8aa
.	.	.	.	8ee#	8gg#
=47	=47	=47	=47	=47	=47
.	.	8d	8dd	8ff#	8aa
.	.	8D	8d	8r	8r
.	.	4r	4r	16ff#	16aa
.	.	.	.	16ee#	16gg#
.	.	.	.	16ff#	16aa
.	.	.	.	16ee#	16gg#
.	.	8d	8dd	8ff#	8aa
.	.	8D	8d	8r	8r
.	.	4r	4r	8ff#	8aa
.	.	.	.	8gg#	8bb
=48	=48	=48	=48	=48	=48
V7/IV	.	2r	2r	8aa	8ccc
.	.	.	.	8gg#	8bb
.	.	.	.	8aa	8ccc
.	.	.	.	8gg#	8bb
.	.	8d	8dd	8aa	8ccc
.	.	8D	8d	8r	8r
.	.	4r	4r	16aa	16ccc
.	.	.	.	16gg#	16bb
.	.	.	.	16aa	16ccc
.	.	.	.	16gg#	16bb
=49	=49	=49	=49	=49	=49
.	.	8d	8dd	8aa	8ccc
.	.	8D	8d	2..r	8r
.	.	2.r	2.r	.	16dd
.	.	.	.	.	16ee
.	.	.	.	.	16ff#
.	.	.	.	.	16ee
.	.	.	.	.	16dd
.	.	.	.	.	16ee
.	.	.	.	.	16ff#
.	.	.	.	.	16gg
.	.	.	.	.	16aa
.	.	.	.	.	16bb
.	.	.	.	.	16ccc
.	End of exposition section	.	.	.	16ddd
=50	=50	=50	=50	=50	=50
*e:	*e:	*e:	*e:	*e:	*e:
viioD7[viioD7/ii]	Starting development section	8d#	2r	2aa	2ccc
.	.	8d#	.	.	.
.	.	8d#	.	.	.
.	.	8d#	.	.	.
(III+c)	.	8d#	2b	4gg	4bb
.	.	8d#	.	.	.
viio	.	8d#	.	4ff#	4aa
.	.	8d#	.	.	.
=51	=51	=51	=51	=51	=51
i	.	8e	2b	4ee	2.gg
.	.	8e	.	.	.
.	.	8e	.	4b	.
.	.	8e	.	.	.
ivm7c	.	8e	2g	[2cc	.
.	.	8e	.	.	.
.	.	8e	.	.	8aa
.	.	8e	.	.	8ee
=52	=52	=52	=52	=52	=52
V7/III[VII7]	.	8d	2.a	2.cc]	4gg
.	.	8d	.	.	.
.	.	8d	.	.	4ff
.	.	8d	.	.	.
.	.	8d	.	.	[2ff
.	.	8d	.	.	.
.	.	8d	8b	8dd	.
.	.	8d	8cc	8a	.
=53	=53	=53	=53	=53	=53
V7/VI[III7]	.	8g	8b	[1b	8ff]
.	.	8g	8dd	.	8fff
.	.	8g	8dd	.	8ddd
.	.	8g	8dd	.	8bb
.	.	8g	[2dd	.	4gg
.	.	8g	.	.	.
.	.	8g	.	.	4ff
.	.	8g	.	.	.
=54	=54	=54	=54	=54	=54
viioD7/iv	.	8g#	1dd]	1b]	4ff
.	.	8g#	.	.	.
V7b/iv	.	8g#	.	.	4ee
.	.	8g#	.	.	.
.	.	8g#	.	.	[2ee
.	.	8g#	.	.	.
.	.	8g#	.	.	.
.	.	8g#	.	.	.
=55	=55	=55	=55	=55	=55
iv	.	8a	4cc	4cc	4ee]
.	.	8a	.	.	.
.	.	8a	2a	4aa	4ccc
.	.	8a	.	.	.
iiob	.	8a	.	4ff#	4aa
.	.	8a	.	.	.
viioD7/V	This is a strange form of an Italian augmented sixth, however, it is spelled in root position, making it easier to analyze it as an incomplete diminished seventh 	8a#	4a#	4ee	4gg
.	.	8a#	.	.	.
=56	=56	=56	=56	=56	=56
V	Starts another sequential progression	4b	4b	4dd#	4ff#
.	.	2r	4r	4r	16bb
.	.	.	.	.	16aa#
.	.	.	.	.	16bb
.	.	.	.	.	16aa#
.	.	.	4b	16b	[2bb
.	.	.	.	16cc#	.
.	.	.	.	16dd#	.
.	.	.	.	16b	.
V7	.	8r	4a	16dd#	.
.	.	.	.	16ee	.
.	.	8b	.	16ff#	.
.	.	.	.	16dd#	.
=57	=57	=57	=57	=57	=57
ib	.	16g	4g	4ee	4bb]
.	.	16a	.	.	.
.	.	16b	.	.	.
.	.	16g	.	.	.
V7d	.	8a	4d#	4ff#	16bb
.	.	.	.	.	16aa#
.	.	8f#	.	.	16bb
.	.	.	.	.	16aa#
V7b	.	8d#	8f#	4.aa	4.bb
.	.	16c#	16e	.	.
.	.	16B	16d#	.	.
.	.	8c#	8e	.	.
.	.	8d#	8f#	8b	8aa
=58	=58	=58	=58	=58	=58
i	.	4e	4g	4b	16gg
.	.	.	.	.	16aa
.	.	.	.	.	16bb
.	.	.	.	.	16gg
.	.	2r	4r	4r	16ee
.	.	.	.	.	16ff#
.	.	.	.	.	16gg
.	.	.	.	.	16ee
V/iv	.	.	4ee	16ee	[2eee
.	.	.	.	16ff#	.
.	.	.	.	16gg#	.
.	.	.	.	16ee	.
V7/iv	.	8r	4dd	16gg#	.
.	.	.	.	16aa	.
.	.	8e	.	16bb	.
.	.	.	.	16gg#	.
=59	=59	=59	=59	=59	=59
ivb	.	16c	4cc	4aa	4eee]
.	.	16d	.	.	.
.	.	16e	.	.	.
.	.	16c	.	.	.
V7d/iv	.	8d	4g#	4bb	16eee
.	.	.	.	.	16ddd#
.	.	8B	.	.	16eee
.	.	.	.	.	16ddd#
V7b/iv	.	8G#	8b	4.ddd	4.eee
.	.	16F#	16a	.	.
.	.	16E	16g#	.	.
.	.	8F#	8a	.	.
.	.	8G#	8b	8ee	8ddd
=60	=60	=60	=60	=60	=60
iv	.	4A	4cc	4ee	16ccc
.	.	.	.	.	16ddd
.	.	.	.	.	16eee
.	.	.	.	.	16ccc
.	.	2r	4r	4r	16aa
.	.	.	.	.	16bb
.	.	.	.	.	16ccc
.	.	.	.	.	16aa
V/VII[IV]	.	.	4aa	16a	[2aaa
.	.	.	.	16b	.
.	.	.	.	16cc#	.
.	.	.	.	16a	.
V7/VII[IV7]	.	8r	4gg	16cc#	.
.	.	.	.	16dd	.
.	.	8a	.	16ee	.
.	.	.	.	16cc#	.
=61	=61	=61	=61	=61	=61
VIIb	.	16f#	4ff#	4dd	4aaa]
.	.	16g	.	.	.
.	.	16a	.	.	.
.	.	16f#	.	.	.
V7d/VII[IV7d]	.	8g	4cc#	4ee	16aaa
.	.	.	.	.	16ggg#
.	.	8e	.	.	16aaa
.	.	.	.	.	16ggg#
V7b/VII[IV7b]	.	8c#	8ee	4.gg	4.aaa
.	.	16B	16dd	.	.
.	.	16A	16cc#	.	.
.	.	8B	8dd	.	.
.	.	8c#	8ee	8a	8gg
=62	=62	=62	=62	=62	=62
VII	.	4d	4ff#	4a	16ff#
.	.	.	.	.	16gg
.	.	.	.	.	16aa
.	.	.	.	.	16ff#
.	.	2r	4r	4r	16dd
.	.	.	.	.	16ee
.	.	.	.	.	16ff#
.	.	.	.	.	16dd
V/III[VII]	.	.	4dd	16dd	[2ddd
.	.	.	.	16ee	.
.	.	.	.	16ff#	.
.	.	.	.	16dd	.
V7/III[VII7]	.	8r	4cc	16ff#	.
.	.	.	.	16gg	.
.	.	8d	.	16aa	.
.	.	.	.	16ff#	.
=63	=63	=63	=63	=63	=63
IIIb	.	16B	4b	4gg	4ddd]
.	.	16c	.	.	.
.	.	16d	.	.	.
.	.	16B	.	.	.
V7d/III[VII7d]	.	8c	4f#	4aa	16ddd
.	.	.	.	.	16ccc#
.	.	8A	.	.	16ddd
.	.	.	.	.	16ccc#
V7b/III[VII7b]	.	8F#	8a	4.ccc	4.ddd
.	.	16E	16g	.	.
.	.	16D	16f#	.	.
.	.	8E	8g	.	.
.	.	8F#	8a	8dd	8ccc
=64	=64	=64	=64	=64	=64
III	.	4G	4b	4dd	16bb
.	.	.	.	.	16ccc
.	.	.	.	.	16ddd
.	.	.	.	.	16bb
.	.	2r	4r	4r	16gg
.	.	.	.	.	16aa
.	.	.	.	.	16bb
.	.	.	.	.	16gg
V/VI[III]	.	.	4gg	16g	[2ggg
.	.	.	.	16a	.
.	.	.	.	16b	.
.	.	.	.	16g	.
V7/VI[III7]	.	8r	4ff	16b	.
.	.	.	.	16cc	.
.	.	8g	.	16dd	.
.	.	.	.	16b	.
=65	=65	=65	=65	=65	=65
VI	.	16e	4ee	4cc	4ggg]
.	.	16f	.	.	.
.	.	16g	.	.	.
.	.	16e	.	.	.
V7d/VI[III7d]	.	8f	4b	4dd	16ggg
.	.	.	.	.	16fff#
.	.	8d	.	.	16ggg
.	.	.	.	.	16fff#
V7b/VI[III7b]	.	8B	8dd	4.ff	2ggg
.	.	16A	16cc	.	.
.	.	16G	16b	.	.
.	.	8A	8cc	.	.
.	.	8B	8dd	8g	.
=66	=66	=66	=66	=66	=66
VI	.	8c	8ee	8g	16eee
.	.	.	.	.	16fff
.	.	8c	8g	8ee	16ggg
.	.	.	.	.	16eee
.	.	8c	8g	8ee	16ccc
.	.	.	.	.	16ddd
.	.	8c	8g	8ee	16eee
.	.	.	.	.	16ccc
.	.	8c	8g	8ee	8gg
.	.	8c	8g	8ee	4.r
.	.	8c	8g	8ee	.
.	.	8c	8g	8ee	.
=67	=67	=67	=67	=67	=67
.	Changing the passing tone for C sharp	8c	8g	8ee	16ee
.	.	.	.	.	16ff#
.	.	8c	8e	8g	16gg
.	.	.	.	.	16ee
.	.	8c	8e	8g	16cc
.	.	.	.	.	16dd
.	.	8c	8e	8g	16ee
.	.	.	.	.	16cc
.	Appoggiatura in the first violin	8c	8e	8g	4b
.	.	8c	8c	8e	.
Lt	Italian augmented sixth	8c	8c	8e	4a#
.	.	8c	8c	8e	.
=68	=68	=68	=68	=68	=68
V	.	4B	4B	4d#	4b
.	.	8.B	8.f#	8.dd#	8.bb
.	.	16B	16f#	16dd#	16bb
.	.	4B	4f#	4dd#	4bb
viioD7c	.	8.A	8.f#	8.dd#	8.ccc
.	.	16A	16f#	16dd#	16ccc
=69	=69	=69	=69	=69	=69
.	.	4A	4f#	4dd#	4ccc
.	.	2r	2r	2r	2r
viioD7c	.	8.A	8.f#	8.cc	8.dd#
.	.	16A	16f#	16cc	16dd#
=70	=70	=70	=70	=70	=70
.	.	4A	4f#	4cc	4dd#
.	.	2.r	2.r	2.r	2.r
=71	=71	=71	=71	=71	=71
.	.	4r	4.r	1r	4r
ib	.	8G	.	.	8ee
.	.	8e	8g	.	8ee
iiom7b	.	8A	8r	.	8ff#
.	.	8e	8a	.	8ff#
V	.	8B	8r	.	8b
.	.	8d#	8b	.	8b
=72	=72	=72	=72	=72	=72
VI	.	8c	8r	8eee	8ee
.	.	8e	8cc	8ee	8ee
ib	.	8G	8r	2.r	16ee
.	.	.	.	.	16ff#
.	.	8e	8g	.	16gg
.	.	.	.	.	16ee
iiom7b	.	8A	8r	.	16ff#
.	.	.	.	.	16gg
.	.	8e	8a	.	16aa
.	.	.	.	.	16ff#
V	.	8B	8r	.	8b
.	.	8f#	8b	.	8dd#
=73	=73	=73	=73	=73	=73
i	.	8E	8r	8eee	4ee
.	.	8e	8e	8ee	.
ib	.	8G	8r	2.r	8ee
.	.	8e	8g	.	8ee
iiom7b	.	8A	8r	.	8ff#
.	.	8e	8a	.	8ff#
V	.	8B	8r	.	8b
.	.	8d#	8b	.	8b
=74	=74	=74	=74	=74	=74
VI	.	8c	8r	8eee	8ee
.	.	8e	8cc	8ee	8ee
ib	.	8G	8r	2.r	16ee
.	.	.	.	.	16ff#
.	.	8e	8g	.	16gg
.	.	.	.	.	16ee
iiom7b	.	8A	8r	.	16ff#
.	.	.	.	.	16gg
.	.	8e	8a	.	16aa
.	.	.	.	.	16ff#
V	.	8B	8r	.	8b
.	.	8f#	8b	.	8dd#
=75	=75	=75	=75	=75	=75
i	.	[1e	[1e	8eee	4ee
.	.	.	.	8ee	.
.	Passing tone	.	.	2r	4ff#
.	.	.	.	.	[2gg
.	.	.	.	4b	.
=76	=76	=76	=76	=76	=76
VIb	.	4e]	4e]	2.cc	4gg]
.	Ascending chromatically	4e#	4e#	.	4gg#
iio	.	[2f#	[2f#	.	[2aa
.	.	.	.	4cc#	.
=77	=77	=77	=77	=77	=77
VIIb	.	2f#]	2f#]	2.dd	4aa]
.	.	.	.	.	4aa#
III	.	2g	2g	.	[2bb
.	.	.	.	4dd#	.
=78	=78	=78	=78	=78	=78
Vb/iv	.	2g#	2g#	2.ee	4bb]
.	.	.	.	.	8ddd
.	.	.	.	.	8ccc
iv	.	4a	4a	.	[2ccc
.	.	4g	4g	8ee-	.
.	Anticipation	.	.	8dd	.
=79	=79	=79	=79	=79	=79
V7b/III	This harmony remains until mm.81	4f#	4f#	8dd	8ccc]
.	.	.	.	8r	8r
.	.	4r	4r	16aa	16ccc
.	.	.	.	16gg#	16bb
.	.	.	.	16aa	16ccc
.	.	.	.	16gg#	16bb
.	.	4f#	4d	8aa	8ccc
.	.	.	.	8r	8r
.	.	4r	4r	16aa	16ccc
.	.	.	.	16gg#	16bb
.	.	.	.	16aa	16ccc
.	.	.	.	16gg#	16bb
=80	=80	=80	=80	=80	=80
.	.	4f#	4d	8aa	8ccc
.	.	.	.	2..r	8r
.	.	2.r	2.r	.	16dd
.	.	.	.	.	16ee
.	.	.	.	.	16ff#
.	.	.	.	.	16ee
.	.	.	.	.	16dd
.	.	.	.	.	16ee
.	.	.	.	.	16ff#
.	.	.	.	.	16gg
.	.	.	.	.	16aa
.	.	.	.	.	16bb
.	.	.	.	.	16ccc
.	.	.	.	.	16ddd
=81	=81	=81	=81	=81	=81
*G:	*G:	*G:	*G:	*G:	*G:
I	.	1r	1r	1r	16bb
.	.	.	.	.	16ccc
.	.	.	.	.	16ddd
.	.	.	.	.	16bb
.	.	.	.	.	8ccc
.	.	.	.	.	8aa
viio	.	.	.	.	8ff#
.	.	.	.	.	16ee
.	.	.	.	.	16dd
.	.	.	.	.	8ee
.	.	.	.	.	8ff#
=82	=82	=82	=82	=82	=82
Ib	.	2b	2dd	4gg	4gg
viioD7/ii	.	.	.	4ff	4gg#
ii	.	4cc	4cc	4ee	4aa
.	.	4r	4r	4r	8r
.	.	.	.	.	8bb
=83	=83	=83	=83	=83	=83
ii	.	1r	1r	1r	16ccc
.	.	.	.	.	16ddd
.	.	.	.	.	16eee
.	.	.	.	.	16ccc
.	.	.	.	.	8aa
.	.	.	.	.	8ccc
ib[III]	.	.	.	.	8bb
.	.	.	.	.	16aa
.	.	.	.	.	16gg
.	.	.	.	.	8ff#
.	.	.	.	.	8gg
=84	=84	=84	=84	=84	=84
V	.	4d	4a	4f#	4aa
viiob/V	.	4e	4g	4g	4cc#
Vb	.	4f#	4f#	4a	4dd
.	.	4r	4r	4r	8r
.	.	.	.	.	8gg
=85	=85	=85	=85	=85	=85
ii	.	2r	2r	2r	16aa
.	.	.	.	.	16bb
.	.	.	.	.	16ccc
.	.	.	.	.	16aa
.	.	.	.	.	8bb
.	.	.	.	.	8ggg
Ib	.	8B	8dd	8gg	24ggg
.	.	.	.	.	24fff#
.	.	.	.	.	24eee
.	.	8r	8r	8r	8ddd
Ib	.	8B	8dd	8gg	24ggg
.	.	.	.	.	24fff#
.	.	.	.	.	24eee
.	.	8r	8r	8r	8ddd
=86	=86	=86	=86	=86	=86
IV	.	8c	8g	8ee	24eee
.	.	.	.	.	24ddd
.	.	.	.	.	24ccc
.	.	8r	8r	8r	8bb
V7	.	8d	8f#	8cc	24ddd
.	.	.	.	.	24ccc
.	.	.	.	.	24bb
.	.	8r	8r	8r	8aa
I	.	4G	4g	4b	4gg
.	.	4r	4r	4r	8r
.	.	.	.	.	8dd
=87	=87	=87	=87	=87	=87
V	.	4d	4dd	4dd	4ddd
.	.	8.d	8.dd	8.dd	8.ddd
viio/V	.	16c#	16cc#	16cc#	16ccc#
V	.	4d	4dd	4dd	4ddd
.	.	4A	4a	4a	4aa
=88	=88	=88	=88	=88	=88
III+c/i[V+]	Analyzed this section with the help of Theories and Practice of Harmonic Analysis (Gene Cho, 1992)	2B-	2b-	2b-	2bb-
.	.	8F#	8f#	8f#	8ff#
.	.	4.r	4.r	4.r	8r
.	.	.	.	.	16bb- 16ff#
.	.	.	.	.	16bb- 16ff#
.	.	.	.	.	16bb- 16ff#
.	.	.	.	.	16bb- 16ff#
=89	=89	=89	=89	=89	=89
.	.	2..r	2..r	2..r	8bb- 8ff#
.	.	.	.	.	8r
.	.	.	.	.	16bb- 16ff#
.	.	.	.	.	16bb- 16ff#
.	.	.	.	.	16bb- 16ff#
.	.	.	.	.	16bb- 16ff#
.	.	.	.	.	8bb- 8ff#
.	.	.	.	.	8r
.	.	.	.	.	16bb-
.	.	.	.	.	16ff#
.	.	8f#	8ff#	8ff#	16bb-
.	.	.	.	.	16ff#
=90	=90	=90	=90	=90	=90
i	.	4g	4gg	4gg	4gg
.	.	4d	4dd	4dd	4dd
.	.	4.B-	4.b-	4.b-	4.b-
V7/V	.	16A	16a	16a	16a
.	.	16G	16g	16g	16g
=91	=91	=91	=91	=91	=91
V	.	8D	4f#	8dd	4f#
.	.	8d	.	8d	.
Vb	.	8F#	4F#	2.r	8a
.	.	8d	.	.	8a
i	.	8G	4G	.	8b-
.	.	8d	.	.	8b-
VM7c	.	8A	4A	.	8cc#
.	.	8d	.	.	8cc#
=92	=92	=92	=92	=92	=92
ib	.	8B-	4B-	8dd	4dd
.	.	8d	.	8d	.
V7b	.	8F#	4F#	2.r	16a
.	.	.	.	.	16b-
.	.	8d	.	.	16cc
.	.	.	.	.	16a
i	.	8G	4G	.	16b-
.	.	.	.	.	16cc
.	.	8d	.	.	16dd
.	.	.	.	.	16b-
ib	.	8B-	4g	.	16g
.	.	.	.	.	16a
.	.	8d	.	.	16b-
.	.	.	.	.	16g
=93	=93	=93	=93	=93	=93
V	.	8D	4f#	8dd	4a
.	.	8d	.	8d	.
Vb	.	8F#	4F#	2.r	8a
.	.	8d	.	.	8a
i	.	8G	4G	.	8b-
.	.	8d	.	.	8b-
VM7	.	8A	4A	.	8cc#
.	.	8d	.	.	8cc#
=94	=94	=94	=94	=94	=94
ib	.	8B-	4B-	8dd	4dd
.	.	8d	.	8d	.
V7b	.	8F#	4F#	2.r	16a
.	.	.	.	.	16b-
.	.	8d	.	.	16cc
.	.	.	.	.	16a
i	.	8G	4G	.	16b-
.	.	.	.	.	16cc
.	.	8d	.	.	16dd
.	.	.	.	.	16b-
ib	.	8B-	4g	.	16g
.	.	.	.	.	16a
.	.	8d	.	.	16b-
.	.	.	.	.	16g
=95	=95	=95	=95	=95	=95
V	.	4D	4f#	8dd	4a
.	.	.	.	8d	.
.	.	2.r	2.r	2r	3..r
.	.	.	.	8r	.
.	.	.	.	.	24r
.	.	.	.	8bb	8ddd
=96	=96	=96	=96	=96	=96
I	Theme B'	2..r	4.r	16gg	16bb
.	.	.	.	16aa	16ccc
.	.	.	.	16bb	16ddd
.	.	.	.	16gg	16bb
V7	.	.	.	8aa	8ccc
.	.	.	8dd	8ff#	8aa
Ib	.	.	16b	[2dd	16gg
.	.	.	16cc	.	16aa
.	.	.	16dd	.	16bb
.	.	.	16b	.	16gg
V7	.	.	8cc	.	8aa
.	.	8d	8a	.	8ff#
=97	=97	=97	=97	=97	=97
Ib	.	16B	16g	8dd]	8gg
.	.	16c	16a	.	.
.	.	16d	16b	8g	4ddd
.	.	16B	16g	.	.
V7c	.	8c	8a	8f#	.
.	.	8A	8f#	8cc	4ddd
I	.	16G	8g	16b	.
.	.	16A	.	16cc	.
.	.	16B	8g	16dd	4ddd
.	.	16G	.	16b	.
V7b	.	8A	8f#	8cc	.
.	.	8F#	8a	8a	8ddd
=98	=98	=98	=98	=98	=98
I	.	8G	8d	8b	16bb
.	.	.	.	.	16ccc
.	.	8G	8b	8dd	16ddd
.	.	.	.	.	16bb
.	.	8G	8b	8dd	16gg
.	.	.	.	.	16aa
.	.	8G	8b	8dd	16bb
.	.	.	.	.	16gg
.	.	8G	8B	8d	4dd
.	.	8G	8b	8dd	.
.	.	8G	8b	8dd	4r
.	.	8G	8b	8dd	.
=99	=99	=99	=99	=99	=99
*g:	*g:	*g:	*g:	*g:	*g:
i	.	8G	8B-	8d	16bb-
.	.	.	.	.	16ccc
.	.	8G	8b-	8dd	16ddd
.	.	.	.	.	16bb-
.	.	8G	8b-	8dd	16gg
.	.	.	.	.	16aa
.	.	8G	8b-	8dd	16bb-
.	.	.	.	.	16gg
.	.	8G	8B-	8d	4dd
.	.	8G	8b-	8dd	.
.	.	8G	8b-	8dd	4r
.	.	8G	8b-	8dd	.
=100	=100	=100	=100	=100	=100
VI	.	8E-	8b-	8g 8ee-	16ggg
.	.	.	.	.	16fff#
.	.	8E-	8b-	8ee- 8g	16ggg
.	.	.	.	.	16fff#
.	.	8E-	8b-	8g 8ee-	16ggg
.	.	.	.	.	16fff#
.	.	8E-	8b-	8ee- 8g	16ggg
.	.	.	.	.	16fff#
.	.	4E-	4b-	4ee- 4g	4ggg
.	.	8.E-	8.B-	8.g 8.e-	8.e- 8.g
.	.	16E-	16B-	16e- 16g	16e- 16g
=101	=101	=101	=101	=101	=101
.	.	4E-	4B-	4e- 4g	4e- 4g
III7b	.	8.D	8.B-	8.ff	8.aa- 8.b-
.	.	16D	16B-	16ff	16aa- 16b-
.	.	4D	4B-	4ff	4aa- 4b-
.	.	8.D	8.B-	8.f	8.a-
.	.	16D	16B-	16f	16a-
=102	=102	=102	=102	=102	=102
.	.	4D	4B-	4f	4a-
.	.	2r	2r	2r	2r
VI	.	8.E-	8.B-	8.e-	8.g
.	.	16E-	16B-	16e-	16g
=103	=103	=103	=103	=103	=103
.	.	4E-	4b-	4e-	4g
.	.	2r	2r	2r	2r
Gn	.	8.e-	8.b-	8.cc#	8.gg
.	.	16e-	16b-	16cc#	16gg
=104	=104	=104	=104	=104	=104
.	.	4e-	4b-	4cc#	[6..gg
.	.	2r	2r	2r	.
.	.	.	.	.	48gg]
.	.	.	.	.	16ff#
.	.	.	.	.	16gg
.	.	.	.	.	16aa
.	.	.	.	.	8bb-
.	.	.	.	.	8bb-
ivb	.	4e-	4g	4cc	8aa
.	.	.	.	.	8gg
=105	=105	=105	=105	=105	=105
V	.	4d	4a	4dd	8ff#
.	.	.	.	.	8gg
.	.	2r	2r	2r	8aa
.	.	.	.	.	8bb-
.	.	.	.	.	4.aa
Lt	.	4e-	4g	4cc#	.
.	.	.	.	.	8gg
=106	=106	=106	=106	=106	=106
V	.	4d	4a	4dd	8ff#
.	.	.	.	.	8gg
.	.	2r	2r	2r	8aa
.	.	.	.	.	8bb-
.	.	.	.	.	4.aa
Lt	.	4e-	4g	4cc#	.
.	.	.	.	.	8gg
=107	=107	=107	=107	=107	=107
V	.	4d	4a	4dd	8ff#
.	.	.	.	.	8gg
.	.	2r	2r	2r	8aa
.	.	.	.	.	8bb-
.	.	.	.	.	4.aa
.	.	8r	8r	8r	.
.	.	8d	8dd	8dd	8dd
=108	=108	=108	=108	=108	=108
iv	.	16c	16cc	16cc	16cc
.	.	16B	16b	16b	16b
.	.	16c	16cc	16cc	16cc
.	.	16B	16b	16b	16b
.	.	16c	16cc	16cc	16cc
.	.	16B	16b	16b	16b
.	.	16c	16cc	16cc	16cc
.	.	16B	16b	16b	16b
.	.	16c	16cc	16cc	16cc
.	.	16B	16b	16b	16b
.	.	16c	16cc	16cc	16cc
.	.	16B	16b	16b	16b
.	.	16c	16cc	16cc	16cc
.	.	16B	16b	16b	16b
.	.	16c	16cc	16cc	16cc
.	.	16B	16b	16b	16b
=109	=109	=109	=109	=109	=109
.	.	4c	4cc	4cc	4cc
.	.	8.E-	8.e-	8.e-	8.e-
.	.	16E-	16e-	16e-	16e-
V7	.	4D	[2d	4.d	4.d
.	.	4F#	.	.	.
.	.	.	.	8aa	8ccc
=110	=110	=110	=110	=110	=110
*G:	*G:	*G:	*G:	*G:	*G:
I	Starting a sequential progression	4G	4d]	4gg	16bb
.	.	.	.	.	16ccc
.	.	.	.	.	16ddd
.	.	.	.	.	16bb
.	.	4B	2g	4r	16gg
.	.	.	.	.	16aa
.	.	.	.	.	16bb
.	.	.	.	.	16gg
IV	.	[2c	.	16ee	4ee
.	.	.	.	16ff#	.
.	.	.	.	16gg	.
.	.	.	.	16ee	.
(IV+)	.	.	4g#	16cc	4r
.	.	.	.	16dd	.
.	.	.	.	16ee	.
.	.	.	.	16cc	.
=111	=111	=111	=111	=111	=111
iib	.	4c]	2.a	4a	16ccc
.	.	.	.	.	16ddd
.	.	.	.	.	16eee
.	.	.	.	.	16ccc
(Vb/V)	.	4c#	.	4r	16aa
.	.	.	.	.	16bb
.	.	.	.	.	16ccc
.	.	.	.	.	16aa
V	.	[2d	.	16ff#	4ff#
.	.	.	.	16gg	.
.	.	.	.	16aa	.
.	.	.	.	16ff#	.
(V+)	.	.	4a#	16dd	4r
.	.	.	.	16ee	.
.	.	.	.	16ff#	.
.	.	.	.	16dd	.
=112	=112	=112	=112	=112	=112
iiib	.	4d]	2.b	4b	16ddd
.	.	.	.	.	16eee
.	.	.	.	.	16fff#
.	.	.	.	.	16ddd
(Vb/vi)	.	4d#	.	4r	16bb
.	.	.	.	.	16ccc
.	.	.	.	.	16ddd
.	.	.	.	.	16bb
vi	.	[2e	.	16gg	4gg
.	.	.	.	16aa	.
.	.	.	.	16bb	.
.	.	.	.	16gg	.
(IVb)	.	.	4cc	16ee	4r
.	.	.	.	16ff#	.
.	.	.	.	16gg	.
.	.	.	.	16ee	.
=113	=113	=113	=113	=113	=113
IVb	.	4e]	2.cc	4cc	16eee
.	.	.	.	.	16fff#
.	.	.	.	.	16ggg
.	.	.	.	.	16eee
.	.	4e	.	4r	16ccc
.	.	.	.	.	16ddd
.	.	.	.	.	16eee
.	.	.	.	.	16ccc
viio	.	[2f#	.	16aa	4aa
.	.	.	.	16bb	.
.	.	.	.	16ccc	.
.	.	.	.	16aa	.
(vii)	.	.	4cc#	16ff#	4r
.	.	.	.	16gg	.
.	.	.	.	16aa	.
.	.	.	.	16ff#	.
=114	=114	=114	=114	=114	=114
Vb	.	4f#]	2dd	4dd	16fff#
.	.	.	.	.	16ggg
.	.	.	.	.	16aaa
.	.	.	.	.	16fff#
.	.	4f#	.	2.r	16ddd
.	.	.	.	.	16eee
.	.	.	.	.	16fff#
.	.	.	.	.	16ddd
I	.	16g	16b	.	4bb
.	.	16a	16cc	.	.
.	.	16b	16dd	.	.
.	.	16g	16b	.	.
.	.	16e	16g	.	8ggg
.	.	16f#	16a	.	.
.	.	16g	16b	.	8gg
.	.	16e	16g	.	.
=115	=115	=115	=115	=115	=115
IV	.	16c	16e	2ee	2.ccc
.	.	16d	16f#	.	.
.	.	16e	16g	.	.
.	.	16c	16e	.	.
ii	.	16A	16c	.	.
.	.	16B	16d	.	.
.	.	16c	16e	.	.
.	.	16A	16c	.	.
V7b	.	16F#	16A	[2dd	.
.	.	16G	16B	.	.
.	.	16A	16c	.	.
.	.	16F#	16A	.	.
I	.	16G	16B	.	4bb
.	.	16A	16c	.	.
.	.	16B	16d	.	.
.	.	16G	16B	.	.
=116	=116	=116	=116	=116	=116
V7b	.	8F#	4A	2dd]	4ccc
.	.	8f#	.	.	.
I	.	8g	4B	.	8bb
.	.	8G	.	.	8gg
ii	.	8c	4c	4ee	16aa
.	.	.	.	.	16bb
.	.	8C	.	.	16ccc
.	.	.	.	.	16aa
V7	.	8D	4d	8cc	8dd
.	.	8d	.	8a	8ff#
=117	=117	=117	=117	=117	=117
I	.	8G	4G	4b	4g
.	.	8g	.	.	.
Ib	.	8B	4B	2.r	8gg
.	.	8g	.	.	8gg
iim7b	.	8c	4c	.	8aa
.	.	8g	.	.	8aa
Ic	.	8d	4d	.	8bb
.	.	8g	.	.	8bb
=118	=118	=118	=118	=118	=118
IVb	.	8e	4e	8gg	8ccc
.	.	8g	.	8g	8ccc
Ic	.	8d	4d	2.r	8bb
.	.	8g	.	.	8bb
IVb	.	8e	4e	.	8ccc
.	.	8g	.	.	8ccc
Ic	.	8d	4d	.	8bb
.	.	8g	.	.	8bb
=119	=119	=119	=119	=119	=119
iim7b	.	8c	4c	8gg	8aa
.	.	8g	.	8g	8aa
Ib	.	8B	4B	2.r	8gg
.	.	8g	.	.	8gg
iim7b	.	8c	4c	.	8aa
.	.	8g	.	.	8aa
V	.	8d	4d	.	8dd
.	.	8f#	.	.	8dd
=120	=120	=120	=120	=120	=120
I	.	8G	4G	8gg	4gg
.	.	8g	.	8g	.
Ib	.	8B	8r	8r	16gg
.	.	.	.	.	16aa
.	.	8g	8b	8ggg	16bb
.	.	.	.	.	16gg
iim7b	.	8c	8r	8r	16aa
.	.	.	.	.	16bb
.	.	8g	8cc	8ggg	16ccc
.	.	.	.	.	16aa
Ic	.	8d	8r	8r	16bb
.	.	.	.	.	16ccc
.	.	8g	8dd	8ggg	16ddd
.	.	.	.	.	16bb
=121	=121	=121	=121	=121	=121
IVb	.	8e	8r	8r	16ccc
.	.	.	.	.	16ddd
.	.	8g	8ee	8ggg	16eee
.	.	.	.	.	16ccc
Ic	.	8d	8r	8r	16bb
.	.	.	.	.	16ccc
.	.	8g	8dd	8ggg	16ddd
.	.	.	.	.	16bb
IVb	.	8e	8r	8r	16ccc
.	.	.	.	.	16ddd
.	.	8g	8ee	8ggg	16eee
.	.	.	.	.	16ccc
Ic	.	8d	8r	8r	16bb
.	.	.	.	.	16ccc
.	.	8g	8dd	8ggg	16ddd
.	.	.	.	.	16bb
=122	=122	=122	=122	=122	=122
iim7b	.	8c	8r	8r	16aa
.	.	.	.	.	16bb
.	.	8g	8cc	8ggg	16ccc
.	.	.	.	.	16aa
Ib	.	8B	8r	8r	16gg
.	.	.	.	.	16aa
.	.	8g	8b	8ggg	16bb
.	.	.	.	.	16gg
iim7b	.	8c	8r	8r	16aa
.	.	.	.	.	16bb
.	.	8g	8cc	8ggg	16ccc
.	.	.	.	.	16aa
V	.	8d	8r	8r	16ff#
.	.	.	.	.	16gg
.	.	8f#	8dd	8ggg	16aa
.	.	.	.	.	16ff#
=123	=123	=123	=123	=123	=123
I	.	4G	4g	8r	4gg
.	.	.	.	8ggg	.
.	.	2.r	2.r	8bb	8ddd
.	.	.	.	8aa#	8ccc#
.	.	.	.	8bb	8ddd
.	.	.	.	8aa#	8ccc#
.	.	.	.	8bb	8ddd
.	.	.	.	8aa#	8ccc#
=124	=124	=124	=124	=124	=124
I	.	8g	8g	8bb	8ddd
.	.	8G	8G	8r	8r
.	.	4r	4r	16bb	16ddd
.	.	.	.	16aa#	16ccc#
.	.	.	.	16bb	16ddd
.	.	.	.	16aa#	16ccc#
.	.	8g	8g	8bb	8ddd
.	.	8G	8G	8r	8r
.	.	4r	4r	8bb	8ddd
.	.	.	.	8ccc	8eee
=125	=125	=125	=125	=125	=125
viioD7/iv/vi	Leading back to B minor in the first repetition	8g#	8g#	2ddd	2fff
.	.	8g#	8g#	.	.
.	.	8g#	8g#	.	.
.	.	8g#	8g#	.	.
.	Passing tones in both violins	8g#	8g#	4ccc	4eee
.	.	8g#	8g#	.	.
.	.	8g#	8g#	4bb	4ddd
.	.	8g#	8g#	.	.
=126	=126	=126	=126	=126	=126
iv/vi	.	8a	8a	2.aa	2.ccc
.	.	8a	8a	.	.
.	.	8a	8a	.	.
.	.	8a	8a	.	.
viioD7/vi	.	8d#	8d#	.	.
.	.	8d#	8d#	.	.
.	.	8d#	8d#	8gg	8bb
.	.	8d#	8d#	8ff#	8aa
=127	=127	=127	=127	=127	=127
I	.	8g	8g	8bb	8ddd
.	.	8G	8G	8r	8r
.	.	4r	2r	16bb	16ddd
.	.	.	.	16aa#	16ccc#
.	.	.	.	16bb	16ddd
.	.	.	.	16aa#	16ccc#
.	.	8g	.	8bb	8ddd
.	.	8G	.	8r	8r
.	.	4r	8dd	8gg	8bb
.	.	.	8dd	8gg	8bb
=128	=128	=128	=128	=128	=128
.	.	8g	8dd	8gg	8bb
.	.	8G	8r	8r	8r
.	.	4r	8dd	8b	8gg
.	.	.	8dd	8b	8gg
.	.	8g	8dd	8b	8gg
.	.	8G	8r	8r	8r
.	.	4r	8g	8d	8b
.	.	.	8g	8d	8b
=129	=129	=129	=129	=129	=129
IVc	.	8G	2.e	2.e	2.cc
.	.	8F#	.	.	.
.	.	8G	.	.	.
.	.	8F#	.	.	.
.	.	8G	.	.	.
.	.	8F#	.	.	.
viio	Pedal D in the bass	8G	8c	8f#	8a
.	.	8GG	8A	8a	8f#
=130	=130	=130	=130	=130	=130
viio	Pedal again	[2GG	2c	2a	2f#
I	.	4GG]	4B	4g	4g
.	.	4r	4r	4r	4r
==	==	==	==	==	==
*-	*-	*-	*-	*-	*-
!!!RWG1: This file contains only pitch and duration data.
!!!RWG2: Transposing instruments are not transposed.
!!!RWG3: Spines may have incompatible meters.
!!!RWG4: Durations of rests and tied notes may be interpreted.
!!!RWG: Key is interpreted using the Humdrum key tool.
!!!GTL: 6 Divertimentos ("Sun")
!!!AFT: stage1
!!!END: 1997/04/15
!!!KEY: 3538034720
!!!EMD: Converted from MuseData to Humdrum Dec 16, 2000, by Andreas Kornstaedt using muse2kern.
!!!EMD: Manual editing by Craig Sapp, Nov 2001
